icons/heart.svg

<svg xmlns="http://www.w3.org/2000/svg" width="24" height="24" viewBox="0 0 24 24">
  <path d="M15.743428,3.00652506 C14.548247,3.06738066 13.3833407,3.55328054 12.2530901,4.43776654 L12,4.643 L11.9885744,4.63339042 C10.7025431,3.55762826 9.37083838,3 8,3 C4.36504138,3 2,5.5339729 2,9.5 C2,12.146114 3.03093044,13.9406966 5.68695722,16.4590035 C6.86009417,17.5713111 8.77281911,19.0221484 11.4392487,20.8279843 C11.7779046,21.0573386 12.2220954,21.0573386 12.5607513,20.8279843 L13.3380831,20.296867 C15.60233,18.7353662 17.2572195,17.4600803 18.3130428,16.4590035 C20.9690696,13.9406966 22,12.146114 22,9.5 C22,5.5339729 19.6349586,3 16,3 L15.743428,3.00652506 Z"/>
</svg>

<svg xmlns="http://www.w3.org/2000/svg" viewBox="0 0 24 24">
  <path d="M15.74 3c-1.2.07-2.36.55-3.49 1.44l-.25.2h-.01A6.2 6.2 0 0 0 8 3C4.37 3 2 5.53 2 9.5c0 2.65 1.03 4.44 3.69 6.96a48.25 48.25 0 0 0 5.75 4.37 1 1 0 0 0 1.12 0l.78-.53a43.69 43.69 0 0 0 4.97-3.84C20.97 13.94 22 12.15 22 9.5 22 5.53 19.63 3 16 3h-.26z"/>
</svg>
